X:1
T:Title
%%score { ( 1 3 ) | ( 2 4 ) }
L:1/8
M:4/4
K:Bb
V:1 treble nm="Grand Piano"
V:3 treble 
V:2 bass 
V:4 bass 
V:1
 z4 z2[Q:1/4=100] [DF]2 | [Fd]2 [Ec]2 [DB]2 [B,D]2 | [DF]3 [EG] [DF]2 [DF]2 | %3
 [Fd]2 [Ec]2 [DB]2 [B,D]2 |[M:3/4] [EF]3 [EG] [EF]2 |[M:1/4] [EG]2 | %6
[M:4/4] [EA]2 [Ec]2 [Af]2 [FA]2 | [FB]2 [Fd]2 [Ff]2 [Fd]2 | [CFc]2 [DFB]2 [CFA]2 G2 | %9
[M:7/8] z z z2 c3 |[M:1/4] F2 |[M:4/4] [Fd]2 [Ec]2 [DB]2 [B,D]2 | [DF]3 [EG] [DF]2 F2 | %13
 [Fe]2 [Fd]2 [Gc]2 [GB]2 |[M:3/4] A3 B c2 |[M:1/4] d2 |[M:4/4] c2 c2 c2 d2 | c2 c2 c2 [Fd]2 | %18
 [Fc]3 [Fc] [=Ed]2 [B=e]2 | [Af]6 [Af]2 | [B=e]6 [Be]2 | [Ae]6 [Ae]2 | [Ad]6 [DAc]2 | %23
[M:3/4] [DGB]6 |[M:1/4] d2 |[M:4/4] c6[K:bass][K:treble] z2 | c6[K:bass][K:treble] z2 | %27
 c3 c d2 =e2 |[M:5/4] f2- [Af]2 [Ae]6 |[M:4/4] B2 z2 z4 | B4 z4 | d>e f>g f2 z z/ _A/ | d2 z2 z4 | %33
 e4 z4 | A2 z2 z4 | A>B c>d [Ae]2 [Ag]2 | [Bf]2 [B=e]2 [Bf]2 [A_e]2 | B2 z2 z4 | B4 z4 | %39
 d>e f>g f2 z z/ _A/ | d2 z2 z4 | [Bg]2 [Bg]2 G>^F G>A | [Bf]2 [Bf]2 B,>C D>E | %43
 F2 [B=e]2 [Bf]2 [Be]2 |[M:9/8] [Bf]3 [EFA]3 [DFB]3 |] %45
V:2
 z4 z2 [B,,B,]2 | [B,,B,]2 [B,,B,]2 [B,,F,]2 [B,,F,]2 | [B,,B,]3 [B,,B,] [B,,B,]2 [B,,B,]2 | %3
 [B,,B,]2 [B,,B,]2 [B,,F,]2 [B,,F,]2 |[M:3/4] [C,A,]3 [C,A,] [C,A,]2 |[M:1/4] [C,A,]2 | %6
[M:4/4] [F,C]2 [F,A,]2 [E,C]2 [E,C]2 | [D,B,]2 [D,B,]2 [B,,D]2 [B,,B,]2 | %8
 A,,2 B,,2 C,2[K:treble] [B,C=E]2 |[M:7/8] z z z2 [A,F]3 |[M:1/4][K:bass] [D,B,]C, | %11
[M:4/4] [B,,B,]2 [B,,B,]2 [B,,F,]2 [B,,F,]2 | [B,,B,]3 [B,,B,] [B,,B,]2 [D,B,]2 | %13
 [C,A,]2 [D,B,]2 [E,B,]2 [=E,C]2 |[M:3/4][K:treble] [F,CF]3 [G,C=E] [A,CF]2 |[M:1/4] [B,F]2 | %16
[M:4/4] [A,CF]2 [G,B,=E]2 [F,A,F]2 [B,F]2 | [A,CF]2[K:bass] [G,B,=E]2 [F,A,F]2 [B,,B,]2 | %18
 [C,A,]3 [C,A,] [C,B,]2 [C,C]2 | [F,C]6 C2 | C4 z4[K:treble] | F6[K:bass] z2 | D6 z2 | %23
[M:3/4] G,A, B,A, G,2 |[M:1/4][K:treble] [DB]2 |[M:4/4] [EB]6 [EB]2 | [FA]6 [B,FB]2 | %27
 [CFA]4 B2- [C,CB]2 |[M:5/4][K:bass] [F,C]2 [F,C]2 [F,C]6 | %29
[M:4/4] z z/ A/ z z/[K:treble] c/[K:bass] B,,2 F>E | z z/ _D/ z z/ E/ B,,2 [B,,B,]>[B,,B,] | %31
 F->[B,CF] B->[B,EB] [B,DF]2 [B,G]2 | [E,B,]2 z z/[K:treble] A/ z z/ B/ A>G | %33
 C2- [F,C]2 [F,C]2[K:treble] F>G | z z/ _A/ z z/[K:treble] B/ F,2 z2 | [F,E]2 F2 z4 | %36
 [B,D]2 [B,_D]2 [B,=D]2 [F,CF]2 | z z/ A/ z z/[K:treble] c/[K:bass] B,,2 F>E | %38
 z z/ _D/ z z/ E/ B,,2 [B,,B,]>[B,,B,] | F->[B,CF] B->[B,EB] [B,DF]2 [B,G]2 | %40
 [E,B,]2 z z/[K:treble] A/ z z/ B/ A>G | [E,_D]2 [E,D]2 z4 | [F,D]2 [F,D]2 z4 | %43
 z2 [G,_D]2 [F,=D]2 [G,_D]2 |[M:9/8] [F,D]3 F,3 B,,3 |] %45
V:3
 x8 | x8 | x8 | x8 |[M:3/4] x6 |[M:1/4] x2 |[M:4/4] x8 | x8 | x8 |[M:7/8] c2 c2 z E,2 | %10
[M:1/4] z A, |[M:4/4] x8 | x8 | x8 |[M:3/4] x6 |[M:1/4] x2 |[M:4/4] x8 | x8 | x8 | x8 | x8 | x8 | %22
 x8 |[M:3/4] x6 |[M:1/4] x2 |[M:4/4] z2[K:bass] C,D, =E,2[K:treble] d2 | %26
 z2[K:bass] F,G, A,2[K:treble] d2 | x8 |[M:5/4] A2 z2 z2 z4 |[M:4/4] [Fd]2- [FBd]2 [FBd]2 A>G | %30
 [DF]>=E [DF]>G [DFB]2 [DB]>[Ec] | z4 z2 d2 | G>^F [Gc]2 [EGc]2 z2 | A>_A =A>B [Ae]2 z2 | %34
 [Ec]2- [EAc]2 [EAc]2 G>^F | x8 | x8 | [Fd]2- [FBd]2 [FBd]2 A>G | [DF]>=E [DF]>G [DFB]2 [DB]>[Ec] | %39
 z4 z2 d2 | G>^F [Gc]2 [EGc]2 z2 | x8 | x8 | x8 |[M:9/8] x9 |] %45
V:4
 x8 | x8 | x8 | x8 |[M:3/4] x6 |[M:1/4] x2 |[M:4/4] x8 | x8 | x6[K:treble] x2 | %9
[M:7/8] [A,CF]2 [G,B,=E]2 F, z2 |[M:1/4][K:bass] x2 |[M:4/4] x8 | x8 | x8 |[M:3/4][K:treble] x6 | %15
[M:1/4] x2 |[M:4/4] x8 | x2[K:bass] x6 | x8 | x8 | z2 G,A, B,2[K:treble] C2 | %21
 z2[K:bass] F,G, A,2 C2 | z2 ^F,G, A,D,=E,F, |[M:3/4] x6 |[M:1/4][K:treble] x2 |[M:4/4] x8 | x8 | %27
 z4 [C=E]2 z2 |[M:5/4][K:bass] x10 |[M:4/4] B,,2 B,,2[K:treble][K:bass] z4 | B,,2 B,,2 z4 | %31
 B,2 [B,D]2 z4 | z2 [E,B,]2[K:treble] E,2 z2 | F,2 z2 z4[K:treble] | F,2 F,2[K:treble] z4 | %35
 F->[F,DF] [F,A,]>[F,B,] [F,C]2 [F,E]2 | x8 | B,,2 B,,2[K:treble][K:bass] z4 | B,,2 B,,2 z4 | %39
 B,2 [B,D]2 z4 | z2 [E,B,]2[K:treble] E,2 z2 | x8 | x8 | x8 |[M:9/8] x9 |] %45

